X: 16
T:Peter's Peerie Boat
M:6/8
L:1/8
C:Tom Anderson
S:AAB
R:Jig
K:D
A/2B/2c||:"D"d2 d D2 D|"G"EFG "A"ABc|"D"d2 d "Bm"Bed|"A"cAA "(C#)"ABc|!
"D"d2 d D2 D|"G"EFG "A"ABc|"D"d2 A "A"GFE|1"D"FDD DBc:|2"D"FDD D2 A|!
||:"D"d2 d f2 d|"A"c2 c e2 c|"G"B2 B dcB|"D"A3 A2 F|!"G"GFG "A"BAG|
"D"F2 A d3|"Em"E2 G B3|"A"C2 E A3|!"D"dcd fed|"A"cBc edc|{Bc}"G"B^AB "(B
)"dcB|
"D"A3 A2 F|!"G"GFG "A"BAG|"D"F2 A a2 g|"D"fed "A"Adc|"D"d3 D3||

